X: 150
T:RIDEE 6 TEMPS N 1
M:4/4
L:1/4
Q:1/4=75
Z:Yves BELOTTEAU
K:G
|D/2G/2F/2E/2DD D/2G/2F/2G/2AA|D/2G/2F/2E/2DD D/2G/2A/2F/2GG|D/2G/2F/2E/
2DD D/2G/2F/2G/2AA|D/2G/2F/2E/2DD D/2G/2A/2F/2GG|
dB/2d/2c/2B/2A D/2D/2E/2F/2GD|dB/2d/2c/2B/2A D/2D/2E/2F/2G2|dB/2d/2c/2B/
2A D/2D/2E/2F/2GD|dB/2d/2c/2B/2A D/2D/2E/2F/2G2|
W:
W: From "Falaleiro" http://home.t-online.de/home/pheld/homepage.htm
